symbols/web/new_releases/materialsymbolsrounded/new_releases_wght500fill1_20px.svg

<svg xmlns="http://www.w3.org/2000/svg" height="20" width="20"><path d="m5.479 16.229-2.229-.5q-.375-.083-.594-.385-.218-.302-.177-.677l.229-2.271-1.52-1.729Q.917 10.375.917 10q0-.375.271-.667l1.52-1.729-.229-2.271q-.041-.375.177-.677.219-.302.594-.385l2.229-.5 1.167-1.979q.187-.334.552-.469.364-.135.698.052L10 2.271l2.104-.896q.334-.187.698-.052.365.135.552.469l1.167 1.979 2.25.5q.375.083.594.385.218.302.177.677l-.23 2.271 1.5 1.75q.25.292.25.646 0 .354-.25.646l-1.5 1.75.23 2.271q.041.375-.177.677-.219.302-.594.385l-2.25.5-1.167 1.979q-.187.334-.552.469-.364.135-.698-.052L10 17.729l-2.104.896q-.334.187-.698.052-.365-.135-.552-.469Zm2.959-3.854q.291.292.697.281.407-.01.719-.302l3.438-3.458q.27-.25.27-.636 0-.385-.291-.635-.271-.271-.646-.271T12 7.625l-2.854 2.854-1.167-1.125q-.271-.25-.625-.26-.354-.011-.625.26t-.271.636q0 .364.271.635Z"/></svg>

<svg xmlns="http://www.w3.org/2000/svg" height="20" width="20"><path d="M5.479 16.229 3.25 15.729Q2.875 15.646 2.656 15.344Q2.438 15.042 2.479 14.667L2.708 12.396L1.188 10.667Q0.917 10.375 0.917 10Q0.917 9.625 1.188 9.333L2.708 7.604L2.479 5.333Q2.438 4.958 2.656 4.656Q2.875 4.354 3.25 4.271L5.479 3.771L6.646 1.792Q6.833 1.458 7.198 1.323Q7.562 1.188 7.896 1.375L10 2.271L12.104 1.375Q12.438 1.188 12.802 1.323Q13.167 1.458 13.354 1.792L14.521 3.771L16.771 4.271Q17.146 4.354 17.365 4.656Q17.583 4.958 17.542 5.333L17.312 7.604L18.812 9.354Q19.062 9.646 19.062 10Q19.062 10.354 18.812 10.646L17.312 12.396L17.542 14.667Q17.583 15.042 17.365 15.344Q17.146 15.646 16.771 15.729L14.521 16.229L13.354 18.208Q13.167 18.542 12.802 18.677Q12.438 18.812 12.104 18.625L10 17.729L7.896 18.625Q7.562 18.812 7.198 18.677Q6.833 18.542 6.646 18.208ZM8.438 12.375Q8.729 12.667 9.135 12.656Q9.542 12.646 9.854 12.354L13.292 8.896Q13.562 8.646 13.562 8.26Q13.562 7.875 13.271 7.625Q13 7.354 12.625 7.354Q12.25 7.354 12 7.625L9.146 10.479L7.979 9.354Q7.708 9.104 7.354 9.094Q7 9.083 6.729 9.354Q6.458 9.625 6.458 9.99Q6.458 10.354 6.729 10.625Z"/></svg>
